assets/leaf-grey/LeafGrey4.svg

<svg xmlns="http://www.w3.org/2000/svg" data-name="Layer 3" viewBox="0 0 128 128"><path d="M62.671 96.907v11.109a1.341 1.341 0 102.681 0V96.89C79.826 91.845 86.054 80 83.326 62.54c-1.7-10.876-6.559-22.072-10.336-29.549a159.624 159.624 0 00-5.474-9.928 38.425 38.425 0 00-2.535-3.995c-.012-.013-.021-.028-.034-.041a1 1 0 00-.935-.384 1.326 1.326 0 00-.468.095c-.03.011-.059.021-.087.034a1.329 1.329 0 00-.373.252c-.017.017-.03.036-.046.053a1.342 1.342 0 00-.14.162c-1.039 1.553-25.363 38.3-17.161 61.82 2.625 7.533 8.326 12.856 16.934 15.848zm15.511-44.394l-12.83 8.345V45.737l8.195-5.331a112.049 112.049 0 014.635 12.107zm2.95 14.234l-15.78 10.009v-12.7l13.627-8.863a62.538 62.538 0 012.153 11.553zm-1.37 13.413c-2.25 6.463-7.114 11.105-14.41 13.869v-14.1l15.927-10.1a30.4 30.4 0 01-1.517 10.33zm-7.339-42.2c-.027.015-.057.016-.083.033l-6.988 4.546V24.676a155.682 155.682 0 017.072 13.283zm-9.752-13.277v69.345c-7.289-2.761-12.153-7.4-14.4-13.85-6.271-17.95 8.371-45.361 14.4-55.495z"/></svg>

<svg id="Layer_3" data-name="Layer 3" xmlns="http://www.w3.org/2000/svg" viewBox="0 0 128 128"><title>Artboard 99</title><path d="M62.671,96.907v11.109a1.341,1.341,0,1,0,2.681,0V96.89C79.826,91.845,86.054,80,83.326,62.54c-1.7-10.876-6.559-22.072-10.336-29.549-2.134-4.221-4.154-7.728-5.474-9.928a38.425,38.425,0,0,0-2.535-3.995c-.012-.013-.021-.028-.034-.041a1,1,0,0,0-.935-.384h0a1.326,1.326,0,0,0-.468.095c-.03.011-.059.021-.087.034a1.329,1.329,0,0,0-.373.252c-.017.017-.03.036-.046.053a1.342,1.342,0,0,0-.14.162c-1.039,1.553-25.363,38.3-17.161,61.82C48.362,88.592,54.063,93.915,62.671,96.907ZM78.182,52.513l-12.83,8.345V45.737l8.195-5.331A112.049,112.049,0,0,1,78.182,52.513Zm2.95,14.234L65.352,76.756v-12.7l13.627-8.863A62.538,62.538,0,0,1,81.132,66.746Zm-1.37,13.413c-2.25,6.463-7.114,11.105-14.41,13.869v-14.1l15.927-10.1A30.4,30.4,0,0,1,79.762,80.159Zm-7.339-42.2c-.027.015-.057.016-.083.033l-6.988,4.546V24.676C67.191,27.755,69.821,32.429,72.424,37.959ZM62.671,24.683V94.028c-7.289-2.761-12.153-7.4-14.4-13.85C42,62.228,56.642,34.817,62.671,24.683Z"/></svg>
